src/16/actions/adjustcol.svg

<svg xmlns="http://www.w3.org/2000/svg" viewBox="0 0 16 16"><path d="M6 2v5H4V6L2 8l2 2V9h2v5h4V9h2v1l2-2-2-2v1h-2V2H6zm1 1h2v3H7V3zm0 4h2v2H7V7zm0 3h2v3H7v-3z" fill="currentColor" color="#5d656b"/></svg>

<svg xmlns="http://www.w3.org/2000/svg" viewBox="0 0 16 16">
  <defs id="defs3051">
    <style type="text/css" id="current-color-scheme">
      .ColorScheme-Text {
        color:#5d656b;
      }
      </style>
  </defs>
 <path style="fill:currentColor;fill-opacity:1;stroke:none" 
     d="M 6 2 L 6 7 L 4 7 L 4 6 L 2 8 L 4 10 L 4 9 L 6 9 L 6 14 L 7 14 L 10 14 L 10 13 L 10 9 L 12 9 L 12 10 L 14 8 L 12 6 L 12 7 L 10 7 L 10 2 L 7 2 L 6 2 z M 7 3 L 9 3 L 9 6 L 7 6 L 7 3 z M 7 7 L 9 7 L 9 9 L 7 9 L 7 7 z M 7 10 L 9 10 L 9 13 L 7 13 L 7 10 z "
     class="ColorScheme-Text"
     />
</svg>
